storage/app/icons/phosphoricons/light/file-minus-light.svg

<svg xmlns="http://www.w3.org/2000/svg" fill="currentColor" viewBox="0 0 256 256"><path d="m212.24 83.76-56-56A6 6 0 0 0 152 26H56a14 14 0 0 0-14 14v176a14 14 0 0 0 14 14h144a14 14 0 0 0 14-14V88a6 6 0 0 0-1.76-4.24M158 46.48 193.52 82H158ZM200 218H56a2 2 0 0 1-2-2V40a2 2 0 0 1 2-2h90v50a6 6 0 0 0 6 6h50v122a2 2 0 0 1-2 2m-42-66a6 6 0 0 1-6 6h-48a6 6 0 0 1 0-12h48a6 6 0 0 1 6 6"/></svg>

<svg xmlns="http://www.w3.org/2000/svg" viewBox="0 0 256 256" fill="currentColor"><path d="M212.24,83.76l-56-56A6,6,0,0,0,152,26H56A14,14,0,0,0,42,40V216a14,14,0,0,0,14,14H200a14,14,0,0,0,14-14V88A6,6,0,0,0,212.24,83.76ZM158,46.48,193.52,82H158ZM200,218H56a2,2,0,0,1-2-2V40a2,2,0,0,1,2-2h90V88a6,6,0,0,0,6,6h50V216A2,2,0,0,1,200,218Zm-42-66a6,6,0,0,1-6,6H104a6,6,0,0,1,0-12h48A6,6,0,0,1,158,152Z"/></svg>
